svg/bookmark_music_outline.svg

<svg xmlns="http://www.w3.org/2000/svg" viewBox="0 0 24 24"><path d="M7 3c-1.1 0-2 .9-2 2v16l7-3 7 3V5a2 2 0 0 0-2-2zm0 2h10v13l-5-2.18L7 18zm5 1v5.3c-.3-.2-.6-.3-1-.3a2 2 0 1 0 0 4c1.11 0 2-.89 2-2V8h2V6z"/></svg>

<?xml version="1.0" encoding="UTF-8"?><!DOCTYPE svg PUBLIC "-//W3C//DTD SVG 1.1//EN" "http://www.w3.org/Graphics/SVG/1.1/DTD/svg11.dtd"><svg xmlns="http://www.w3.org/2000/svg" xmlns:xlink="http://www.w3.org/1999/xlink" version="1.1" id="mdi-bookmark-music-outline" width="24" height="24" viewBox="0 0 24 24"><path d="M7 3C5.9 3 5 3.9 5 5V21L12 18L19 21V5C19 3.89 18.1 3 17 3H7M7 5H17V18L12 15.82L7 18V5M12 6V11.3C11.7 11.1 11.4 11 11 11C9.9 11 9 11.9 9 13C9 14.11 9.9 15 11 15C12.11 15 13 14.11 13 13V8H15V6H12Z" /></svg>
